X:1
T: Bannockburn
C:
R:Strathspey
Q:128
K:G
M:4/4
L:1/16
|:G2A2|BB3 B3A B4 d2B2|A2G2 G3E E4 D4|BB3 B3A B4 g2e2|dB3 B3G B4A4|
BB3 B3A B4 d2B2|A2G2 G3E E4D4|DG3 G3A B2d2 B2G2|AG3 G3E G4B2d2|
g4 g3e d4 B2d2|e3d B2A2 B2d2 B2A2|G4 G3E D2E2 G2d2|e2g2 f3e f4e2d2|
gg3 c3e d4 b2a2|g3e e2d2 e2d2 B2A2|G4 g2e2 d2g2 B2G2|ed3 B3A G4:|
